assets/img/logo-small.svg

<svg width="86" height="88" viewBox="0 0 86 88" fill="none" xmlns="http://www.w3.org/2000/svg">
  <path d="M85.6701 74.7275H0.00695801V80.0572H85.6701V74.7275Z" fill="#4E352E"/>
  <path d="M21.8564 86.971C15.4659 86.971 15.4355 68.0889 21.8564 68.0889C28.2773 68.0889 28.2773 86.971 21.8564 86.971ZM67.0464 69.9162C66.8461 69.6387 66.5861 69.4097 66.2856 69.2462C66.8029 71.4085 67.3203 76.5858 65.251 76.5858C65.1901 74.9412 65.2205 70.1598 63.7598 68.7893C62.8469 69.0634 61.1732 69.8857 60.2603 72.2307C59.9726 73.165 59.7689 74.123 59.6517 75.0935V75.1849C59.0126 80.545 60.5646 87.0014 64.3076 87.0014C68.2028 87.0014 69.7243 79.9663 68.8722 74.5149C68.6865 74.6755 68.4482 74.7622 68.2028 74.7585C68.2636 73.2053 67.8072 71.0126 67.0464 69.9162ZM79.3709 68.0889C72.95 68.0889 72.9804 86.971 79.3709 86.971C85.7614 86.971 85.7614 68.0889 79.3709 68.0889ZM10.7187 68.0889C4.29773 68.0889 4.32816 86.971 10.7187 86.971C17.1092 86.971 17.1396 68.0889 10.7187 68.0889Z" fill="#E45325"/>
  <path d="M13.0622 82.7679C13.7732 82.7693 14.4623 82.5215 15.0098 82.0675C14.3099 84.8693 12.8796 86.9707 10.7495 86.9707C5.08931 86.9707 4.41983 72.1696 8.80189 68.7891C7.37163 74.3928 8.77146 82.7679 13.0622 82.7679ZM81.6841 82.7679C77.4237 82.7679 75.9935 74.3623 77.4237 68.7891C73.0417 72.1696 73.7111 86.9707 79.3713 86.9707C81.5015 86.9707 82.9317 84.8693 83.6316 82.0675C83.0841 82.5215 82.3951 82.7693 81.6841 82.7679ZM60.2546 72.1787C58.4591 77.7215 59.7981 86.9799 64.2715 86.9799C66.4016 86.9799 67.8319 84.8785 68.5318 82.0766C67.9765 82.5168 67.2924 82.7629 66.5842 82.7771C62.5065 82.7771 61.0458 75.1633 62.1413 69.6205C61.2971 70.291 60.6461 71.1738 60.2546 72.1787ZM19.9031 68.7982C15.521 72.1787 16.1905 86.9799 21.8507 86.9799C23.9809 86.9799 25.4111 84.8785 26.111 82.0766C25.5558 82.5168 24.8717 82.7629 24.1634 82.7771C19.9092 82.7679 18.4789 74.3928 19.9092 68.7891L19.9031 68.7982Z" fill="#BE3A26"/>
  <path d="M37.1267 73.3576C36.7919 73.2663 32.7446 63.3379 32.7446 63.3379C32.7446 63.3379 35.5747 61.3279 35.7268 60.7188C34.9052 59.8965 34.114 58.252 34.114 58.252C34.2098 58.9335 34.3625 59.6059 34.5705 60.262C34.5705 60.262 33.3532 59.7138 32.9576 58.7392L30.3101 62.5157C30.3101 62.5157 34.7835 72.8095 34.753 73.3576C33.0793 72.9922 31.5274 74.7586 31.5274 74.7586C34.7835 75.0936 33.7184 80.6973 31.5274 80.0882C33.0793 83.6515 34.9356 81.5501 35.0878 75.4895C35.7877 75.9768 38.2526 79.4487 35.3921 80.0882C38.0396 84.9306 40.9305 78.7482 37.0049 75.2154C39.0438 75.3677 42.2086 77.8345 39.7742 80.0882C40.6566 82.4028 42.3912 81.1846 42.6651 79.4487C43.0668 76.2204 40.0541 74.0886 37.1267 73.3576Z" fill="#2D1E1C"/>
  <path d="M66.4379 67.5706C65.6163 66.3828 64.399 66.3828 63.1209 67.1442C60.3213 67.2356 58.5867 66.8701 49.9443 67.9969C49.9443 67.9969 49.8835 67.3269 49.8226 66.3828C49.0923 66.4742 48.3619 66.5046 47.6011 66.5351L48.3923 70.5551C50.7051 70.4638 57.6738 68.8192 61.0212 68.8192C59.804 70.1288 57.9477 73.6616 59.6822 75.1843C59.9561 70.5551 62.5732 69.1603 63.76 68.7888C64.9285 70.2019 65.1902 74.9711 65.2511 76.5852C67.3204 76.5852 66.8639 71.4383 66.3466 69.276C66.6101 69.4535 66.846 69.6691 67.0465 69.9156C67.8073 70.9815 68.0751 73.223 68.2029 74.7579C70.5765 74.7579 69.0793 67.6315 66.4379 67.5706Z" fill="#2D1E1C"/>
  <path d="M61.8732 58.2209C54.6915 61.8755 45.5317 61.9668 50.2181 52.9217C49.8531 53.3102 49.5077 53.7167 49.1834 54.1399C50.0355 51.1248 52.6222 48.4143 55.0262 46.5566C53.844 47.1565 52.7052 47.8383 51.6179 48.5971C55.5435 43.0847 59.4083 44.7902 61.2341 36.9023C59.8039 42.0188 54.022 45.4298 48.8791 46.8002C43.9798 49.6021 30.4988 46.4043 26.1472 45.0338C29.1903 44.7902 30.3163 44.6075 30.3163 44.6075C27.1514 43.6329 23.6519 41.8056 20.1827 40.5569C20.3349 43.0543 20.9131 45.6429 21.8869 47.653C21.3695 44.8511 21.8869 43.4502 21.8869 43.4502C21.8869 43.4502 22.8911 49.3889 25.2343 52.8303C24.3214 49.1453 24.717 47.8966 24.717 47.8966C24.717 47.8966 26.6037 54.9926 29.3729 57.429C29.0072 56.1223 28.9038 54.756 29.0686 53.409C29.0686 53.409 29.5859 54.8099 32.842 57.429C32.0204 55.4495 33.968 56.1499 35.4895 58.2513C37.0111 60.3527 37.924 60.5355 42.093 59.7132C39.0499 61.4491 43.9189 62.6673 47.0533 62.2714C44.8014 63.7028 51.9222 63.3373 55.9696 62.3628C53.8394 64.0073 61.2341 63.3069 62.4514 62.4846C62.8165 62.2409 63.6382 62.2409 64.5511 62.4237C64.9163 62.18 65.251 61.9364 65.5857 61.6927C63.2973 62.85 67.2534 55.4495 61.8732 58.2209Z" fill="#F2F2F2"/>
  <path d="M54.448 65.2866C48.7574 67.4794 40.115 66.5658 32.9028 63.6725C32.8543 63.5639 32.8136 63.452 32.7811 63.3375C32.7811 63.3375 35.6112 61.3275 35.7633 60.7184C34.9417 59.8961 34.1505 58.2515 34.1505 58.2515C34.2463 58.9331 34.399 59.6055 34.607 60.2616C34.607 60.2616 33.3897 59.7134 32.9941 58.7388L30.3466 62.5152C30.3466 62.5233 30.3498 62.5311 30.3556 62.5368C30.3613 62.5425 30.369 62.5457 30.3771 62.5457C27.547 61.1448 25.0516 59.4393 23.1954 57.5206C23.6214 58.6779 23.9866 59.8047 24.1692 60.3529C22.9519 58.8302 18.0525 53.7746 16.1962 46.6177C16.1962 47.747 16.2571 48.8755 16.3788 49.9982C15.2399 47.2082 14.5319 44.2609 14.2791 41.2576C14.15 42.1658 14.0788 43.0813 14.0661 43.9986C13.3053 41.8363 12.9706 38.9735 12.9097 36.8416V34.8316C12.6934 35.2847 12.5103 35.7529 12.3619 36.2325C12.3315 36.3544 12.3011 36.4457 12.2706 36.5675V36.598C12.2356 36.7169 12.2151 36.8396 12.2098 36.9635C11.8947 34.6451 11.9461 32.2916 12.3619 29.9893C18.8133 33.522 26.0559 37.9685 30.5292 41.1358C31.3204 41.684 23.4997 39.0344 24.2909 39.5826C30.9248 44.0595 37.8631 47.7141 44.5579 47.5009C46.041 47.4405 47.5118 47.2053 48.94 46.8004C44.0406 49.6023 30.5597 46.4045 26.208 45.034C29.2511 44.7904 30.3771 44.6077 30.3771 44.6077C27.2122 43.6331 23.7127 41.8058 20.2436 40.5572C20.3957 43.0545 20.9739 45.6431 21.9477 47.6532C21.4304 44.8513 21.9477 43.4504 21.9477 43.4504C21.9477 43.4504 22.9519 49.3891 25.2951 52.8305C24.3822 49.1455 24.7778 47.8968 24.7778 47.8968C24.7778 47.8968 26.6645 54.9928 29.4337 57.4292C29.068 56.1225 28.9646 54.7562 29.1294 53.4092C29.1294 53.4092 29.6467 54.8101 32.9028 57.4292C32.0812 55.4497 34.0288 56.1501 35.5503 58.2515C37.0719 60.3529 37.9848 60.5357 42.1539 59.7134C39.1108 61.4493 43.9797 62.6675 47.1141 62.2716C44.8622 63.703 51.9831 63.3375 56.0304 62.363C53.9002 64.0075 61.2949 63.3071 62.5122 62.4848C62.8773 62.2411 63.699 62.2411 64.6119 62.4239C61.5992 64.4339 57.7954 65.9262 52.896 66.6267C52.8351 66.5962 53.9002 66.1089 54.448 65.2866ZM39.4759 53.9269C40.9975 54.5665 42.9755 53.7137 44.5883 51.5514C43.5172 52.4651 41.387 53.6833 39.4759 53.9269ZM39.4759 58.7997C40.6019 59.1652 42.093 58.6779 43.2798 57.4292C42.1213 58.1468 40.8256 58.6136 39.4759 58.7997ZM27.334 46.9009C26.9688 48.576 27.6991 50.6774 29.3728 52.3219C28.3596 50.6589 27.6679 48.8199 27.334 46.9009Z" fill="#B3B3B3"/>
  <path d="M1.19379 24.6689C2.74577 27.9276 7.31041 31.3995 11.9359 34.0796C11.9124 32.7101 12.0348 31.342 12.3011 29.9986C7.76688 27.4921 3.65261 25.4516 1.19379 24.6689Z" fill="#2D1E1C"/>
  <path d="M12.3922 2.15335C8.40572 -1.07489 6.1234 1.36152 7.37107 4.62021C6.15383 4.04156 -0.236673 -2.9631 0.00677518 1.45288C0.15893 3.98065 6.03211 11.5944 11.9357 19.1168C15.1464 17.6599 18.4627 16.4483 21.8562 15.4927C18.1741 9.52347 14.2789 3.6761 12.3922 2.15335Z" fill="#2D1E1C"/>
  <path d="M83.7834 45.643C87.3438 34.4355 83.2965 15.7666 48.2705 16.8021C31.3813 8.88376 13.0314 17.8985 1.19379 24.6595C7.09739 26.5781 22.8606 35.7451 30.4684 41.1052C31.2596 41.6534 23.4388 39.0038 24.23 39.552C30.864 44.0289 37.8022 47.6835 44.4971 47.4703C50.4615 47.2876 60.5037 43.0848 61.4775 35.5928C64.4902 36.1715 65.6161 42.0798 65.3118 42.5366C65.7074 42.1102 66.1639 37.6029 68.2941 36.5065C68.2941 36.5065 67.4116 39.0342 67.655 39.7043C68.781 36.141 77.4842 35.5928 76.0844 44.3943C76.48 43.9984 77.2103 41.3793 77.2103 41.3793C76.1757 47.8967 78.7015 50.5158 81.1664 50.9422C82.3227 50.729 84.5746 46.5871 84.8485 43.9984C84.565 44.5898 84.2071 45.1425 83.7834 45.643Z" fill="#4E352E"/>
  <path d="M13.9443 20.1003C17.1396 18.1208 28.3078 13.248 39.8715 15.5321C28.4903 14.923 13.9443 20.1003 13.9443 20.1003ZM48.2705 16.8112C47.4102 16.394 46.5262 16.0279 45.623 15.7148C49.1874 18.0528 52.4042 20.8825 55.1783 24.1204C54.2045 22.4149 53.0481 19.3694 50.9788 16.7807C50.0963 16.7716 49.1834 16.7716 48.2705 16.8021V16.8112Z" fill="#2D1E1C"/>
  <path d="M51.2224 42.9931C38.198 44.7595 32.5378 41.0136 33.0552 40.4654C38.8979 43.5718 49.4879 42.8713 51.2224 42.9931ZM29.6165 34.1612C29.0991 34.6789 34.7593 38.4553 47.7837 36.6889C46.0492 36.5671 35.4896 37.2676 29.6165 34.1612ZM57.9173 36.963C58.5259 37.2067 61.3559 34.2525 57.6434 27.7961C57.7651 28.6793 60.0474 33.9175 57.9173 36.963ZM81.2578 31.8161C75.2325 22.4664 65.5859 21.6442 63.4253 22.2533C75.1655 23.8369 79.9188 31.0639 81.2517 31.8161H81.2578Z" fill="#6D4D42"/>
  <path d="M80.284 52.5867C80.8622 51.9471 82.2925 51.3989 82.8707 51.1248C82.5359 51.0944 81.5621 51.3685 80.6188 51.673C80.8014 51.4294 80.984 51.2162 81.1665 50.9421C78.6712 50.5157 76.1759 47.8966 77.2105 41.3792C77.2105 41.3792 76.4497 43.9984 76.0846 44.3943C77.4844 35.5623 68.7811 36.141 67.6552 39.7042C67.4117 39.0342 68.2942 36.5064 68.2942 36.5064C66.1641 37.6028 65.7076 42.1102 65.312 42.5365C65.6163 42.0797 64.4599 36.1714 61.4777 35.5928C61.4156 36.0249 61.3241 36.4523 61.2038 36.8719C59.378 44.7597 55.5132 43.0543 51.5876 48.5666C52.6749 47.8079 53.8137 47.126 54.9959 46.5261C52.5614 48.3839 50.0052 51.0944 49.1532 54.1094C49.4774 53.6863 49.8228 53.2797 50.1878 52.8912C45.5319 61.9364 54.6612 61.845 61.8429 58.1904C67.2596 55.419 63.2427 62.8805 65.5555 61.6318C68.8724 59.8654 70.3635 57.0331 71.246 55.4495C70.6374 56.759 70.181 57.7031 70.181 57.7031C72.3111 56.089 73.1023 53.2871 74.8065 52.9521C74.2891 51.7339 74.0457 50.7898 74.4109 50.5462C74.9586 50.2112 76.6932 51.8862 77.4235 52.2821C77.6061 52.1603 77.5757 51.7644 77.5757 51.7644C77.9372 52.2989 78.403 52.7547 78.9451 53.1044C79.0972 52.739 79.3102 52.9521 79.3407 52.9521C79.9825 52.9669 80.6063 53.1679 81.1361 53.5308C80.9013 53.1749 80.614 52.8566 80.284 52.5867Z" fill="#E45325"/>
  <path d="M74.8369 39.8568C72.585 37.725 69.9375 38.5777 68.7811 40.0396C69.688 37.3291 73.6197 36.9636 74.8369 39.8568ZM69.8158 55.2062C69.4506 56.2417 66.7423 59.4699 64.9164 59.6526C65.732 60.1094 69.6636 57.9471 69.8158 55.2062ZM58.3738 49.3893C57.6434 50.1202 56.0306 51.3079 54.509 51.4907C54.9655 51.7739 57.0652 51.247 58.3738 49.3893ZM52.3789 54.993C51.9833 55.5107 51.0703 56.2721 50.0052 56.1807C50.3704 56.5158 51.7702 56.4244 52.3789 54.993ZM59.7432 53.9271C59.3476 54.4448 58.4346 55.2062 57.3695 55.1148C57.7347 55.4498 59.1345 55.3585 59.7432 53.9271ZM67.5943 53.5312C67.1987 54.0489 66.2858 54.8103 65.2207 54.7189C65.5859 55.0539 66.9857 54.9625 67.5943 53.5312ZM60.5039 56.0285C59.9866 57.0944 55.2698 60.0181 53.1701 59.2872C54.0221 60.2617 60.017 59.2872 60.5039 56.0376V56.0285Z" fill="#BE3A26"/>
  <path d="M74.5933 44.9429C72.8892 45.9784 70.8503 46.0698 69.3592 44.8516C69.6635 45.8261 72.6457 47.0443 74.5933 44.9429Z" fill="#ED6D23"/>
  <path d="M13.4879 19.491C7.09743 12.0905 0.950378 2.28393 0.950378 0.852547C0.950378 0.84341 5.8802 8.76172 13.4879 19.491ZM16.6832 14.6487C16.6223 13.735 12.4533 7.64402 8.28424 3.10622C13.3662 9.74542 16.6832 14.6395 16.6832 14.6395V14.6487Z" fill="#4E352E"/>
  <path d="M78.9753 53.1354C78.4197 52.803 77.9505 52.3438 77.6059 51.7954C77.6059 51.7954 77.6363 52.1913 77.4537 52.3131C76.7234 51.9172 74.9888 50.2422 74.4411 50.5772C74.0759 50.8208 74.3193 51.765 74.8367 52.9832C75.567 54.7495 76.8451 57.125 77.545 58.7392C77.8189 59.3787 79.523 61.6019 79.3709 52.9832C79.3405 52.9527 79.1213 52.7395 78.9753 53.1354Z" fill="black"/>
  <path d="M71.824 45.4911C73.6727 45.4911 75.1714 43.9913 75.1714 42.1411C75.1714 40.2909 73.6727 38.791 71.824 38.791C69.9753 38.791 68.4766 40.2909 68.4766 42.1411C68.4766 43.9913 69.9753 45.4911 71.824 45.4911Z" fill="black"/>
  <path d="M72.8891 40.2008C72.95 40.6271 72.4631 41.0535 71.824 41.1449C71.185 41.2362 70.5764 40.9621 70.5155 40.5662C70.4546 40.1703 70.9415 39.7135 71.5806 39.6221C72.2196 39.5307 72.7978 39.7652 72.8891 40.2008ZM73.8325 43.9163C73.4538 44.365 72.9227 44.6579 72.3414 44.7386C72.2805 44.6776 72.1892 44.6776 72.0675 44.6776C71.9881 44.6828 71.9129 44.715 71.8545 44.769C71.2063 44.7828 70.566 44.6252 69.9982 44.3122C70.2357 44.5515 70.5212 44.7378 70.836 44.8585C71.1507 44.9792 71.4875 45.0318 71.824 45.0127C71.9111 45.0788 72.0192 45.1113 72.1283 45.104C72.2501 45.0736 72.3414 45.0431 72.3718 44.9517C73.163 44.769 73.802 44.364 73.8325 43.9071V43.9163Z" fill="white"/>
</svg>

<svg xmlns="http://www.w3.org/2000/svg" width="86" height="88" fill="none"><path d="M85.67 74.728H.007v5.33H85.67v-5.33z" fill="#4e352e"/><path d="M21.856 86.971c-6.391 0-6.421-18.882 0-18.882s6.421 18.882 0 18.882zm45.19-17.055c-.2-.278-.46-.507-.761-.67.517 2.162 1.035 7.34-1.035 7.34-.061-1.645-.031-6.426-1.491-7.797-.913.274-2.587 1.096-3.499 3.441-.288.934-.491 1.892-.609 2.863v.091c-.639 5.36.913 11.817 4.656 11.817 3.895 0 5.417-7.035 4.565-12.487a1 1 0 0 1-.669.244c.061-1.553-.396-3.746-1.156-4.842zm12.325-1.827c-6.421 0-6.391 18.882 0 18.882s6.39-18.882 0-18.882zm-68.652 0c-6.421 0-6.391 18.882 0 18.882s6.421-18.882 0-18.882z" fill="#e45325"/><path d="M13.062 82.768a3.04 3.04 0 0 0 1.948-.7c-.7 2.802-2.13 4.903-4.26 4.903-5.66 0-6.33-14.801-1.948-18.182-1.43 5.604-.03 13.979 4.26 13.979zm68.622 0c-4.26 0-5.691-8.406-4.26-13.979-4.382 3.38-3.713 18.182 1.948 18.182 2.13 0 3.56-2.101 4.26-4.903a3.04 3.04 0 0 1-1.948.7zM60.255 72.179c-1.796 5.543-.457 14.801 4.017 14.801 2.13 0 3.56-2.101 4.26-4.903a3.24 3.24 0 0 1-1.948.701c-4.078 0-5.538-7.614-4.443-13.157a6.09 6.09 0 0 0-1.887 2.558zm-40.351-3.381c-4.382 3.381-3.713 18.182 1.948 18.182 2.13 0 3.56-2.101 4.26-4.903a3.24 3.24 0 0 1-1.948.701c-4.254-.009-5.684-8.384-4.254-13.988l-.006.009z" fill="#be3a26"/><path d="M37.127 73.358c-.335-.091-4.382-10.02-4.382-10.02s2.83-2.01 2.982-2.619c-.822-.822-1.613-2.467-1.613-2.467a12.33 12.33 0 0 0 .457 2.01s-1.217-.548-1.613-1.523l-2.648 3.777s4.473 10.294 4.443 10.842c-1.674-.365-3.226 1.401-3.226 1.401 3.256.335 2.191 5.939 0 5.33 1.552 3.563 3.408 1.462 3.56-4.599.7.487 3.165 3.959.304 4.599 2.648 4.842 5.538-1.34 1.613-4.873 2.039.152 5.204 2.619 2.769 4.873.882 2.315 2.617 1.096 2.891-.639.402-3.228-2.611-5.36-5.538-6.091zm29.311-5.787c-.822-1.188-2.039-1.188-3.317-.426-2.8.091-4.534-.274-13.177.853 0 0-.061-.67-.122-1.614-.73.091-1.461.122-2.221.152l.791 4.02c2.313-.091 9.282-1.736 12.629-1.736-1.217 1.31-3.074 4.842-1.339 6.365.274-4.629 2.891-6.024 4.078-6.395 1.169 1.413 1.43 6.182 1.491 7.796 2.069 0 1.613-5.147 1.096-7.309.264.178.499.393.7.64.761 1.066 1.029 3.307 1.156 4.842 2.374 0 .876-7.126-1.765-7.187z" fill="#2d1e1c"/><path d="M61.873 58.221c-7.182 3.655-16.341 3.746-11.655-5.299a15.93 15.93 0 0 0-1.035 1.218c.852-3.015 3.439-5.726 5.843-7.583-1.182.6-2.321 1.282-3.408 2.04 3.926-5.512 7.79-3.807 9.616-11.695-1.43 5.117-7.212 8.528-12.355 9.898-4.899 2.802-18.38-.396-22.732-1.766 3.043-.244 4.169-.426 4.169-.426-3.165-.975-6.664-2.802-10.134-4.051.152 2.497.73 5.086 1.704 7.096-.517-2.802 0-4.203 0-4.203s1.004 5.939 3.347 9.38c-.913-3.685-.517-4.934-.517-4.934s1.887 7.096 4.656 9.532c-.366-1.307-.469-2.673-.304-4.02 0 0 .517 1.401 3.773 4.02-.822-1.98 1.126-1.279 2.648.822s2.435 2.284 6.604 1.462c-3.043 1.736 1.826 2.954 4.96 2.558-2.252 1.431 4.869 1.066 8.916.091-2.13 1.645 5.264.944 6.482.122.365-.244 1.187-.244 2.1-.061a30.39 30.39 0 0 0 1.035-.731c-2.288 1.157 1.668-6.243-3.713-3.472z" fill="#f2f2f2"/><path d="M54.448 65.287c-5.691 2.193-14.333 1.279-21.545-1.614-.048-.109-.089-.221-.122-.335 0 0 2.83-2.01 2.982-2.619-.822-.822-1.613-2.467-1.613-2.467a12.33 12.33 0 0 0 .456 2.01s-1.217-.548-1.613-1.523l-2.648 3.776c0 .008.003.016.009.022s.013.009.021.009c-2.83-1.401-5.325-3.106-7.182-5.025.426 1.157.791 2.284.974 2.832-1.217-1.523-6.117-6.578-7.973-13.735a31.37 31.37 0 0 0 .183 3.38c-1.139-2.79-1.847-5.737-2.1-8.741a21.6 21.6 0 0 0-.213 2.741c-.761-2.162-1.096-5.025-1.156-7.157v-2.01a10.36 10.36 0 0 0-.548 1.401c-.03.122-.061.213-.091.335v.03c-.035.119-.056.242-.061.366-.315-2.318-.264-4.672.152-6.974 6.451 3.533 13.694 7.979 18.167 11.147.791.548-7.029-2.101-6.238-1.553 6.634 4.477 13.572 8.132 20.267 7.918 1.483-.06 2.954-.296 4.382-.7-4.899 2.802-18.38-.396-22.732-1.766 3.043-.244 4.169-.426 4.169-.426-3.165-.975-6.664-2.802-10.133-4.05.152 2.497.73 5.086 1.704 7.096-.517-2.802 0-4.203 0-4.203s1.004 5.939 3.347 9.38c-.913-3.685-.517-4.934-.517-4.934s1.887 7.096 4.656 9.532c-.366-1.307-.469-2.673-.304-4.02 0 0 .517 1.401 3.773 4.02-.822-1.98 1.126-1.279 2.648.822s2.435 2.284 6.604 1.462c-3.043 1.736 1.826 2.954 4.96 2.558-2.252 1.431 4.869 1.066 8.916.091-2.13 1.644 5.264.944 6.482.122.365-.244 1.187-.244 2.1-.061-3.013 2.01-6.817 3.502-11.716 4.203-.061-.031 1.004-.518 1.552-1.34zm-14.972-11.36c1.522.64 3.5-.213 5.112-2.376-1.071.914-3.201 2.132-5.112 2.376zm0 4.873c1.126.365 2.617-.122 3.804-1.37-1.159.718-2.454 1.184-3.804 1.37zM27.334 46.901c-.365 1.675.365 3.776 2.039 5.421a15.54 15.54 0 0 1-2.039-5.421z" fill="#b3b3b3"/><path d="M1.194 24.669C2.746 27.928 7.31 31.4 11.936 34.08a19.27 19.27 0 0 1 .365-4.081c-4.534-2.506-8.648-4.547-11.107-5.33zM12.392 2.153C8.406-1.075 6.123 1.362 7.371 4.62 6.154 4.042-.237-2.963.007 1.453.159 3.981 6.032 11.594 11.936 19.117c3.211-1.457 6.527-2.669 9.921-3.624-3.682-5.969-7.577-11.817-9.464-13.339z" fill="#2d1e1c"/><path d="M83.783 45.643c3.56-11.208-.487-29.876-35.513-28.841-16.889-7.918-35.239 1.096-47.077 7.857 5.904 1.919 21.667 11.086 29.275 16.446.791.548-7.03-2.101-6.238-1.553 6.634 4.477 13.572 8.132 20.267 7.918 5.964-.183 16.007-4.385 16.98-11.878 3.013.579 4.139 6.487 3.834 6.944.396-.426.852-4.934 2.982-6.03 0 0-.882 2.528-.639 3.198 1.126-3.563 9.829-4.112 8.429 4.69.396-.396 1.126-3.015 1.126-3.015-1.035 6.517 1.491 9.136 3.956 9.563 1.156-.213 3.408-4.355 3.682-6.944a7.69 7.69 0 0 1-1.065 1.645z" fill="#4e352e"/><path d="M13.944 20.1c3.195-1.98 14.364-6.852 25.927-4.568C28.49 14.923 13.944 20.1 13.944 20.1zm34.326-3.289a24.33 24.33 0 0 0-2.648-1.096 45.3 45.3 0 0 1 9.555 8.406c-.974-1.706-2.13-4.751-4.199-7.34-.883-.009-1.795-.009-2.708.021v.009z" fill="#2d1e1c"/><path d="M51.222 42.993c-13.024 1.766-18.685-1.98-18.167-2.528 5.843 3.106 16.433 2.406 18.167 2.528zm-21.606-8.832c-.517.518 5.143 4.294 18.167 2.528-1.735-.122-12.294.579-18.167-2.528zm28.301 2.802c.609.244 3.439-2.711-.274-9.167.122.883 2.404 6.121.274 9.167zm23.341-5.147c-6.025-9.35-15.672-10.172-17.833-9.563 11.74 1.584 16.494 8.811 17.826 9.563h.006z" fill="#6d4d42"/><path d="M80.284 52.587c.578-.64 2.008-1.188 2.587-1.462-.335-.03-1.309.244-2.252.548l.548-.731c-2.495-.426-4.991-3.046-3.956-9.563 0 0-.761 2.619-1.126 3.015 1.4-8.832-7.303-8.253-8.429-4.69-.243-.67.639-3.198.639-3.198-2.13 1.096-2.587 5.604-2.982 6.03.304-.457-.852-6.365-3.834-6.944-.062.432-.154.86-.274 1.279-1.826 7.888-5.691 6.182-9.616 11.695a28.47 28.47 0 0 1 3.408-2.041c-2.434 1.858-4.991 4.568-5.843 7.583.324-.423.67-.83 1.035-1.218-4.656 9.045 4.473 8.954 11.655 5.299 5.417-2.771 1.4 4.69 3.713 3.441 3.317-1.766 4.808-4.599 5.691-6.182l-1.065 2.254c2.13-1.614 2.921-4.416 4.626-4.751-.517-1.218-.761-2.162-.396-2.406.548-.335 2.282 1.34 3.013 1.736.183-.122.152-.518.152-.518.362.535.827.99 1.369 1.34.152-.365.365-.152.396-.152a3.31 3.31 0 0 1 1.795.579c-.235-.356-.522-.674-.852-.944z" fill="#e45325"/><path d="M74.837 39.857c-2.252-2.132-4.899-1.279-6.056.183.907-2.711 4.839-3.076 6.056-.183zm-5.021 15.349c-.365 1.035-3.073 4.264-4.899 4.446.816.457 4.747-1.706 4.899-4.446zm-11.442-5.817c-.73.731-2.343 1.919-3.865 2.101.456.283 2.556-.244 3.865-2.101zm-5.995 5.604c-.396.518-1.309 1.279-2.374 1.188.365.335 1.765.244 2.374-1.188zm7.364-1.066c-.396.518-1.309 1.279-2.374 1.188.365.335 1.765.244 2.374-1.188zm7.851-.396c-.396.518-1.309 1.279-2.374 1.188.365.335 1.765.244 2.374-1.188zm-7.09 2.497c-.517 1.066-5.234 3.99-7.334 3.259.852.974 6.847 0 7.334-3.25v-.009z" fill="#be3a26"/><path d="M74.593 44.943c-1.704 1.035-3.743 1.127-5.234-.091.304.974 3.287 2.193 5.234.091z" fill="#ed6d23"/><path d="M13.488 19.491C7.097 12.091.95 2.284.95.853c0-.009 4.93 7.909 12.538 18.638zm3.195-4.842c-.061-.914-4.23-7.005-8.399-11.542 5.082 6.639 8.399 11.533 8.399 11.533v.009z" fill="#4e352e"/><path d="M78.975 53.135a4.11 4.11 0 0 1-1.369-1.34s.03.396-.152.518c-.73-.396-2.465-2.071-3.013-1.736-.365.244-.122 1.188.396 2.406l2.708 5.756c.274.64 1.978 2.863 1.826-5.756-.03-.03-.25-.244-.396.152zm-7.151-7.644a3.35 3.35 0 1 0 0-6.7 3.35 3.35 0 1 0 0 6.7z" fill="#000"/><path d="M72.889 40.201c.061.426-.426.853-1.065.944s-1.248-.183-1.308-.579.426-.853 1.065-.944 1.217.143 1.308.579zm.943 3.715a2.38 2.38 0 0 1-1.491.822c-.061-.061-.152-.061-.274-.061-.079.005-.155.037-.213.091-.648.014-1.288-.144-1.856-.457a2.38 2.38 0 0 0 1.826.701c.087.066.195.099.304.091.122-.03.213-.061.243-.152.791-.183 1.43-.588 1.461-1.045v.009z" fill="#fff"/></svg>
